gnome/icons/Varda/apps/scalable/org.gnome.Boxes.svg

<?xml version="1.0" encoding="UTF-8" standalone="no"?>
<svg
   xmlns:dc="http://purl.org/dc/elements/1.1/"
   xmlns:cc="http://creativecommons.org/ns#"
   xmlns:rdf="http://www.w3.org/1999/02/22-rdf-syntax-ns#"
   xmlns:svg="http://www.w3.org/2000/svg"
   xmlns="http://www.w3.org/2000/svg"
   xmlns:sodipodi="http://sodipodi.sourceforge.net/DTD/sodipodi-0.dtd"
   xmlns:inkscape="http://www.inkscape.org/namespaces/inkscape"
   width="64px"
   height="64px"
   viewBox="0 0 64 64"
   version="1.1"
   id="svg21"
   sodipodi:docname="org.gnome.Boxes.svg"
   inkscape:version="1.0.2 (e86c870879, 2021-01-15)">
  <metadata
     id="metadata27">
    <rdf:RDF>
      <cc:Work
         rdf:about="">
        <dc:format>image/svg+xml</dc:format>
        <dc:type
           rdf:resource="http://purl.org/dc/dcmitype/StillImage" />
      </cc:Work>
    </rdf:RDF>
  </metadata>
  <defs
     id="defs25" />
  <sodipodi:namedview
     pagecolor="#ffffff"
     bordercolor="#666666"
     borderopacity="1"
     objecttolerance="10"
     gridtolerance="10"
     guidetolerance="10"
     inkscape:pageopacity="0"
     inkscape:pageshadow="2"
     inkscape:window-width="2560"
     inkscape:window-height="1403"
     id="namedview23"
     showgrid="false"
     inkscape:zoom="15.75"
     inkscape:cx="32"
     inkscape:cy="32"
     inkscape:window-x="0"
     inkscape:window-y="0"
     inkscape:window-maximized="1"
     inkscape:current-layer="surface1" />
  <g
     id="surface1">
    <path
       style="fill:#2e3436;fill-opacity:1;fill-rule:nonzero;stroke:none"
       d="m 10.484375,8.957031 -1.871094,1.871094 0.648438,0.648437 v 41.390626 l -0.648438,0.648437 1.871094,1.871094 0.648437,-0.648438 h 41.390626 l 0.648437,0.648438 1.871094,-1.871094 -0.804688,-0.804687 V 11.632812 L 55.042969,10.828125 53.171875,8.957031 52.367188,9.761719 H 11.289062 Z m 3.449219,3.449219 h 35.789062 l -9.261718,9.261719 H 23.195312 Z m -2.027344,1.714844 9.261719,9.261718 v 17.578126 l -9.261719,9.261718 z m 39.6875,0.15625 V 50.066406 L 42.332031,40.804688 V 23.539062 Z M 23.8125,24.3125 h 15.875 v 15.875 h -15.875 z m -0.773438,18.519531 h 17.578126 l 9.261718,9.261719 H 13.777344 Z m 0,0"
       id="path2" />
    <path
       style="fill:#d0ebee;fill-opacity:1;fill-rule:nonzero;stroke:none"
       d="m 10.582031,3.144531 c 4.386719,0 7.9375,3.554688 7.9375,7.9375 0,4.386719 -3.550781,7.9375 -7.9375,7.9375 -4.382812,0 -7.9375,-3.550781 -7.9375,-7.9375 0,-4.382812 3.554688,-7.9375 7.9375,-7.9375 z m 0,0"
       id="path4" />
    <path
       style="fill:#d0ebee;fill-opacity:1;fill-rule:nonzero;stroke:none"
       d="m 52.917969,3.144531 c 4.382812,0 7.9375,3.554688 7.9375,7.9375 0,4.386719 -3.554688,7.9375 -7.9375,7.9375 -4.386719,0 -7.9375,-3.550781 -7.9375,-7.9375 0,-4.382812 3.550781,-7.9375 7.9375,-7.9375 z m 0,0"
       id="path6" />
    <path
       style="fill:#d0ebee;fill-opacity:1;fill-rule:nonzero;stroke:none"
       d="m 52.917969,45.480469 c 4.382812,0 7.9375,3.550781 7.9375,7.9375 0,4.382812 -3.554688,7.9375 -7.9375,7.9375 -4.386719,0 -7.9375,-3.554688 -7.9375,-7.9375 0,-4.386719 3.550781,-7.9375 7.9375,-7.9375 z m 0,0"
       id="path8" />
    <path
       style="fill:#d0ebee;fill-opacity:1;fill-rule:nonzero;stroke:none"
       d="m 10.582031,45.480469 c 4.386719,0 7.9375,3.550781 7.9375,7.9375 0,4.382812 -3.550781,7.9375 -7.9375,7.9375 -4.382812,0 -7.9375,-3.554688 -7.9375,-7.9375 0,-4.386719 3.554688,-7.9375 7.9375,-7.9375 z m 0,0"
       id="path10" />
    <path
       style="fill:#d0ebee;fill-opacity:1;fill-rule:nonzero;stroke:none"
       d="m 22.488281,37.542969 c 2.191407,0 3.96875,1.777343 3.96875,3.96875 0,2.191406 -1.777343,3.96875 -3.96875,3.96875 -2.191406,0 -3.96875,-1.777344 -3.96875,-3.96875 0,-2.191407 1.777344,-3.96875 3.96875,-3.96875 z m 0,0"
       id="path12" />
    <path
       style="fill:#d0ebee;fill-opacity:1;fill-rule:nonzero;stroke:none"
       d="m 41.011719,37.542969 c 2.191406,0 3.96875,1.777343 3.96875,3.96875 0,2.191406 -1.777344,3.96875 -3.96875,3.96875 -2.191407,0 -3.96875,-1.777344 -3.96875,-3.96875 0,-2.191407 1.777343,-3.96875 3.96875,-3.96875 z m 0,0"
       id="path14" />
    <path
       style="fill:#d0ebee;fill-opacity:1;fill-rule:nonzero;stroke:none"
       d="m 41.011719,19.019531 c 2.191406,0 3.96875,1.777344 3.96875,3.96875 0,2.191407 -1.777344,3.96875 -3.96875,3.96875 -2.191407,0 -3.96875,-1.777343 -3.96875,-3.96875 0,-2.191406 1.777343,-3.96875 3.96875,-3.96875 z m 0,0"
       id="path16" />
    <path
       style="fill:#d0ebee;fill-opacity:1;fill-rule:nonzero;stroke:none"
       d="m 22.488281,19.019531 c 2.191407,0 3.96875,1.777344 3.96875,3.96875 0,2.191407 -1.777343,3.96875 -3.96875,3.96875 -2.191406,0 -3.96875,-1.777343 -3.96875,-3.96875 0,-2.191406 1.777344,-3.96875 3.96875,-3.96875 z m 0,0"
       id="path18" />
  </g>
</svg>

<?xml version="1.0" encoding="UTF-8"?>
<svg xmlns="http://www.w3.org/2000/svg" xmlns:xlink="http://www.w3.org/1999/xlink" width="64px" height="64px" viewBox="0 0 64 64" version="1.1">
<g id="surface1">
<path style=" stroke:none;fill-rule:nonzero;fill:rgb(74.117649%,74.117649%,74.117649%);fill-opacity:1;" d="M 10.484375 8.957031 L 8.613281 10.828125 L 9.261719 11.476562 L 9.261719 52.867188 L 8.613281 53.515625 L 10.484375 55.386719 L 11.132812 54.738281 L 52.523438 54.738281 L 53.171875 55.386719 L 55.042969 53.515625 L 54.238281 52.710938 L 54.238281 11.632812 L 55.042969 10.828125 L 53.171875 8.957031 L 52.367188 9.761719 L 11.289062 9.761719 Z M 13.933594 12.40625 L 49.722656 12.40625 L 40.460938 21.667969 L 23.195312 21.667969 Z M 11.90625 14.121094 L 21.167969 23.382812 L 21.167969 40.960938 L 11.90625 50.222656 Z M 51.59375 14.277344 L 51.59375 50.066406 L 42.332031 40.804688 L 42.332031 23.539062 Z M 23.8125 24.3125 L 39.6875 24.3125 L 39.6875 40.1875 L 23.8125 40.1875 Z M 23.039062 42.832031 L 40.617188 42.832031 L 49.878906 52.09375 L 13.777344 52.09375 Z M 23.039062 42.832031 "/>
<path style=" stroke:none;fill-rule:nonzero;fill:rgb(87.843138%,87.843138%,87.843138%);fill-opacity:1;" d="M 10.582031 3.144531 C 14.96875 3.144531 18.519531 6.699219 18.519531 11.082031 C 18.519531 15.46875 14.96875 19.019531 10.582031 19.019531 C 6.199219 19.019531 2.644531 15.46875 2.644531 11.082031 C 2.644531 6.699219 6.199219 3.144531 10.582031 3.144531 Z M 10.582031 3.144531 "/>
<path style=" stroke:none;fill-rule:nonzero;fill:rgb(87.843138%,87.843138%,87.843138%);fill-opacity:1;" d="M 52.917969 3.144531 C 57.300781 3.144531 60.855469 6.699219 60.855469 11.082031 C 60.855469 15.46875 57.300781 19.019531 52.917969 19.019531 C 48.53125 19.019531 44.980469 15.46875 44.980469 11.082031 C 44.980469 6.699219 48.53125 3.144531 52.917969 3.144531 Z M 52.917969 3.144531 "/>
<path style=" stroke:none;fill-rule:nonzero;fill:rgb(87.843138%,87.843138%,87.843138%);fill-opacity:1;" d="M 52.917969 45.480469 C 57.300781 45.480469 60.855469 49.03125 60.855469 53.417969 C 60.855469 57.800781 57.300781 61.355469 52.917969 61.355469 C 48.53125 61.355469 44.980469 57.800781 44.980469 53.417969 C 44.980469 49.03125 48.53125 45.480469 52.917969 45.480469 Z M 52.917969 45.480469 "/>
<path style=" stroke:none;fill-rule:nonzero;fill:rgb(87.843138%,87.843138%,87.843138%);fill-opacity:1;" d="M 10.582031 45.480469 C 14.96875 45.480469 18.519531 49.03125 18.519531 53.417969 C 18.519531 57.800781 14.96875 61.355469 10.582031 61.355469 C 6.199219 61.355469 2.644531 57.800781 2.644531 53.417969 C 2.644531 49.03125 6.199219 45.480469 10.582031 45.480469 Z M 10.582031 45.480469 "/>
<path style=" stroke:none;fill-rule:nonzero;fill:rgb(87.843138%,87.843138%,87.843138%);fill-opacity:1;" d="M 22.488281 37.542969 C 24.679688 37.542969 26.457031 39.320312 26.457031 41.511719 C 26.457031 43.703125 24.679688 45.480469 22.488281 45.480469 C 20.296875 45.480469 18.519531 43.703125 18.519531 41.511719 C 18.519531 39.320312 20.296875 37.542969 22.488281 37.542969 Z M 22.488281 37.542969 "/>
<path style=" stroke:none;fill-rule:nonzero;fill:rgb(87.843138%,87.843138%,87.843138%);fill-opacity:1;" d="M 41.011719 37.542969 C 43.203125 37.542969 44.980469 39.320312 44.980469 41.511719 C 44.980469 43.703125 43.203125 45.480469 41.011719 45.480469 C 38.820312 45.480469 37.042969 43.703125 37.042969 41.511719 C 37.042969 39.320312 38.820312 37.542969 41.011719 37.542969 Z M 41.011719 37.542969 "/>
<path style=" stroke:none;fill-rule:nonzero;fill:rgb(87.843138%,87.843138%,87.843138%);fill-opacity:1;" d="M 41.011719 19.019531 C 43.203125 19.019531 44.980469 20.796875 44.980469 22.988281 C 44.980469 25.179688 43.203125 26.957031 41.011719 26.957031 C 38.820312 26.957031 37.042969 25.179688 37.042969 22.988281 C 37.042969 20.796875 38.820312 19.019531 41.011719 19.019531 Z M 41.011719 19.019531 "/>
<path style=" stroke:none;fill-rule:nonzero;fill:rgb(87.843138%,87.843138%,87.843138%);fill-opacity:1;" d="M 22.488281 19.019531 C 24.679688 19.019531 26.457031 20.796875 26.457031 22.988281 C 26.457031 25.179688 24.679688 26.957031 22.488281 26.957031 C 20.296875 26.957031 18.519531 25.179688 18.519531 22.988281 C 18.519531 20.796875 20.296875 19.019531 22.488281 19.019531 Z M 22.488281 19.019531 "/>
</g>
</svg>
